documentation/public/assets/images/password-input.svg

<svg width="251" height="48" viewBox="0 0 251 48" fill="none" xmlns="http://www.w3.org/2000/svg">
<rect x="0.5" y="0.5" width="250" height="47" rx="3.5" fill="white"/>
<path d="M13.4091 30V18.3636H20.4318V19.6136H14.8182V23.5455H20.0682V24.7955H14.8182V28.75H20.5227V30H13.4091ZM24.1307 24.75V30H22.7898V21.2727H24.0852V22.6364H24.1989C24.4034 22.1932 24.714 21.8371 25.1307 21.5682C25.5473 21.2955 26.0852 21.1591 26.7443 21.1591C27.3352 21.1591 27.8523 21.2803 28.2955 21.5227C28.7386 21.7614 29.0833 22.125 29.3295 22.6136C29.5758 23.0985 29.6989 23.7121 29.6989 24.4545V30H28.358V24.5455C28.358 23.8598 28.1799 23.3258 27.8239 22.9432C27.4678 22.5568 26.9792 22.3636 26.358 22.3636C25.9299 22.3636 25.5473 22.4564 25.2102 22.642C24.8769 22.8277 24.6136 23.0985 24.4205 23.4545C24.2273 23.8106 24.1307 24.2424 24.1307 24.75ZM35.9446 21.2727V22.4091H31.4219V21.2727H35.9446ZM32.7401 19.1818H34.081V27.5C34.081 27.8788 34.1359 28.1629 34.2457 28.3523C34.3594 28.5379 34.5033 28.6629 34.6776 28.7273C34.8556 28.7879 35.0431 28.8182 35.2401 28.8182C35.3878 28.8182 35.509 28.8106 35.6037 28.7955C35.6984 28.7765 35.7741 28.7614 35.831 28.75L36.1037 29.9545C36.0128 29.9886 35.8859 30.0227 35.723 30.0568C35.5601 30.0947 35.3537 30.1136 35.1037 30.1136C34.7249 30.1136 34.3537 30.0322 33.9901 29.8693C33.6302 29.7064 33.331 29.4583 33.0923 29.125C32.8575 28.7917 32.7401 28.3712 32.7401 27.8636V19.1818ZM41.527 30.1818C40.6861 30.1818 39.9607 29.9962 39.3509 29.625C38.7448 29.25 38.277 28.7273 37.9474 28.0568C37.6217 27.3826 37.4588 26.5985 37.4588 25.7045C37.4588 24.8106 37.6217 24.0227 37.9474 23.3409C38.277 22.6553 38.7353 22.1212 39.3224 21.7386C39.9134 21.3523 40.6027 21.1591 41.3906 21.1591C41.8452 21.1591 42.294 21.2348 42.7372 21.3864C43.1804 21.5379 43.5838 21.7841 43.9474 22.125C44.3111 22.4621 44.6009 22.9091 44.8168 23.4659C45.0327 24.0227 45.1406 24.7083 45.1406 25.5227V26.0909H38.4134V24.9318H43.777C43.777 24.4394 43.6785 24 43.4815 23.6136C43.2884 23.2273 43.0118 22.9223 42.652 22.6989C42.2959 22.4754 41.8755 22.3636 41.3906 22.3636C40.8565 22.3636 40.3944 22.4962 40.0043 22.7614C39.6179 23.0227 39.3205 23.3636 39.1122 23.7841C38.9039 24.2045 38.7997 24.6553 38.7997 25.1364V25.9091C38.7997 26.5682 38.9134 27.1269 39.1406 27.5852C39.3717 28.0398 39.6918 28.3864 40.1009 28.625C40.5099 28.8598 40.9853 28.9773 41.527 28.9773C41.8793 28.9773 42.1974 28.928 42.4815 28.8295C42.7694 28.7273 43.0175 28.5758 43.2259 28.375C43.4342 28.1705 43.5952 27.9167 43.7088 27.6136L45.0043 27.9773C44.8679 28.4167 44.6387 28.803 44.3168 29.1364C43.9948 29.4659 43.5971 29.7235 43.1236 29.9091C42.6501 30.0909 42.1179 30.1818 41.527 30.1818ZM47.1804 30V21.2727H48.4759V22.5909H48.5668C48.7259 22.1591 49.0137 21.8087 49.4304 21.5398C49.8471 21.2708 50.3168 21.1364 50.8395 21.1364C50.938 21.1364 51.0611 21.1383 51.2088 21.142C51.3565 21.1458 51.4683 21.1515 51.544 21.1591V22.5227C51.4986 22.5114 51.3944 22.4943 51.2315 22.4716C51.0724 22.4451 50.9039 22.4318 50.7259 22.4318C50.3016 22.4318 49.9228 22.5208 49.5895 22.6989C49.2599 22.8731 48.9986 23.1155 48.8054 23.4261C48.616 23.733 48.5213 24.0833 48.5213 24.4773V30H47.1804ZM58.4972 33.2727C58.2699 33.2727 58.0672 33.2538 57.8892 33.2159C57.7112 33.1818 57.5881 33.1477 57.5199 33.1136L57.8608 31.9318C58.1866 32.0152 58.4744 32.0455 58.7244 32.0227C58.9744 32 59.196 31.8883 59.3892 31.6875C59.5862 31.4905 59.7661 31.1705 59.929 30.7273L60.179 30.0455L56.9517 21.2727H58.4062L60.8153 28.2273H60.9062L63.3153 21.2727H64.7699L61.0653 31.2727C60.8987 31.7235 60.6922 32.0966 60.446 32.392C60.1998 32.6913 59.9138 32.9129 59.5881 33.0568C59.2661 33.2008 58.9025 33.2727 58.4972 33.2727ZM69.7727 30.1818C68.9848 30.1818 68.2936 29.9943 67.6989 29.6193C67.108 29.2443 66.6458 28.7197 66.3125 28.0455C65.983 27.3712 65.8182 26.5833 65.8182 25.6818C65.8182 24.7727 65.983 23.9792 66.3125 23.3011C66.6458 22.6231 67.108 22.0966 67.6989 21.7216C68.2936 21.3466 68.9848 21.1591 69.7727 21.1591C70.5606 21.1591 71.25 21.3466 71.8409 21.7216C72.4356 22.0966 72.8977 22.6231 73.2273 23.3011C73.5606 23.9792 73.7273 24.7727 73.7273 25.6818C73.7273 26.5833 73.5606 27.3712 73.2273 28.0455C72.8977 28.7197 72.4356 29.2443 71.8409 29.6193C71.25 29.9943 70.5606 30.1818 69.7727 30.1818ZM69.7727 28.9773C70.3712 28.9773 70.8636 28.8239 71.25 28.517C71.6364 28.2102 71.9223 27.8068 72.108 27.3068C72.2936 26.8068 72.3864 26.2652 72.3864 25.6818C72.3864 25.0985 72.2936 24.5549 72.108 24.0511C71.9223 23.5473 71.6364 23.1402 71.25 22.8295C70.8636 22.5189 70.3712 22.3636 69.7727 22.3636C69.1742 22.3636 68.6818 22.5189 68.2955 22.8295C67.9091 23.1402 67.6231 23.5473 67.4375 24.0511C67.2519 24.5549 67.1591 25.0985 67.1591 25.6818C67.1591 26.2652 67.2519 26.8068 67.4375 27.3068C67.6231 27.8068 67.9091 28.2102 68.2955 28.517C68.6818 28.8239 69.1742 28.9773 69.7727 28.9773ZM81.2741 26.4318V21.2727H82.6151V30H81.2741V28.5227H81.1832C80.9787 28.9659 80.6605 29.3428 80.2287 29.6534C79.7969 29.9602 79.2514 30.1136 78.5923 30.1136C78.0469 30.1136 77.562 29.9943 77.1378 29.7557C76.7135 29.5133 76.3802 29.1496 76.1378 28.6648C75.8954 28.1761 75.7741 27.5606 75.7741 26.8182V21.2727H77.1151V26.7273C77.1151 27.3636 77.2931 27.8712 77.6491 28.25C78.009 28.6288 78.4673 28.8182 79.0241 28.8182C79.3575 28.8182 79.6965 28.733 80.0412 28.5625C80.3897 28.392 80.6813 28.1307 80.9162 27.7784C81.1548 27.4261 81.2741 26.9773 81.2741 26.4318ZM85.071 30V21.2727H86.3665V22.5909H86.4574C86.6165 22.1591 86.9044 21.8087 87.321 21.5398C87.7377 21.2708 88.2074 21.1364 88.7301 21.1364C88.8286 21.1364 88.9517 21.1383 89.0994 21.142C89.2472 21.1458 89.3589 21.1515 89.4347 21.1591V22.5227C89.3892 22.5114 89.285 22.4943 89.1222 22.4716C88.9631 22.4451 88.7945 22.4318 88.6165 22.4318C88.1922 22.4318 87.8134 22.5208 87.4801 22.6989C87.1506 22.8731 86.8892 23.1155 86.696 23.4261C86.5066 23.733 86.4119 24.0833 86.4119 24.4773V30H85.071ZM95.5241 33.2727V21.2727H96.8196V22.6591H96.9787C97.0772 22.5076 97.2135 22.3144 97.3878 22.0795C97.5658 21.8409 97.8196 21.6288 98.1491 21.4432C98.4825 21.2538 98.9332 21.1591 99.5014 21.1591C100.236 21.1591 100.884 21.3428 101.445 21.7102C102.005 22.0777 102.443 22.5985 102.757 23.2727C103.071 23.947 103.229 24.7424 103.229 25.6591C103.229 26.5833 103.071 27.3845 102.757 28.0625C102.443 28.7367 102.007 29.2595 101.45 29.6307C100.893 29.9981 100.251 30.1818 99.5241 30.1818C98.9635 30.1818 98.5147 30.089 98.1776 29.9034C97.8404 29.714 97.581 29.5 97.3991 29.2614C97.2173 29.0189 97.0772 28.8182 96.9787 28.6591H96.8651V33.2727H95.5241ZM96.8423 25.6364C96.8423 26.2955 96.9389 26.8769 97.1321 27.3807C97.3253 27.8807 97.6075 28.2727 97.9787 28.5568C98.3499 28.8371 98.8045 28.9773 99.3423 28.9773C99.9029 28.9773 100.371 28.8295 100.746 28.5341C101.125 28.2348 101.409 27.8333 101.598 27.3295C101.791 26.822 101.888 26.2576 101.888 25.6364C101.888 25.0227 101.793 24.4697 101.604 23.9773C101.418 23.4811 101.136 23.089 100.757 22.8011C100.382 22.5095 99.9105 22.3636 99.3423 22.3636C98.7969 22.3636 98.3385 22.5019 97.9673 22.7784C97.5961 23.0511 97.3158 23.4337 97.1264 23.9261C96.937 24.4148 96.8423 24.9848 96.8423 25.6364ZM107.842 30.2045C107.289 30.2045 106.787 30.1004 106.337 29.892C105.886 29.6799 105.528 29.375 105.263 28.9773C104.998 28.5758 104.865 28.0909 104.865 27.5227C104.865 27.0227 104.964 26.6174 105.161 26.3068C105.357 25.9924 105.621 25.7462 105.95 25.5682C106.28 25.3902 106.643 25.2576 107.041 25.1705C107.443 25.0795 107.846 25.0076 108.251 24.9545C108.782 24.8864 109.212 24.8352 109.541 24.8011C109.875 24.7633 110.117 24.7008 110.268 24.6136C110.424 24.5265 110.501 24.375 110.501 24.1591V24.1136C110.501 23.553 110.348 23.1174 110.041 22.8068C109.738 22.4962 109.278 22.3409 108.661 22.3409C108.02 22.3409 107.518 22.4811 107.155 22.7614C106.791 23.0417 106.536 23.3409 106.388 23.6591L105.115 23.2045C105.342 22.6742 105.645 22.2614 106.024 21.9659C106.407 21.6667 106.823 21.4583 107.274 21.3409C107.729 21.2197 108.176 21.1591 108.615 21.1591C108.895 21.1591 109.217 21.1932 109.581 21.2614C109.948 21.3258 110.303 21.4602 110.643 21.6648C110.988 21.8693 111.274 22.178 111.501 22.5909C111.729 23.0038 111.842 23.5568 111.842 24.25V30H110.501V28.8182H110.433C110.342 29.0076 110.191 29.2102 109.979 29.4261C109.767 29.642 109.484 29.8258 109.132 29.9773C108.78 30.1288 108.35 30.2045 107.842 30.2045ZM108.047 29C108.577 29 109.024 28.8958 109.388 28.6875C109.755 28.4792 110.032 28.2102 110.217 27.8807C110.407 27.5511 110.501 27.2045 110.501 26.8409V25.6136C110.445 25.6818 110.32 25.7443 110.126 25.8011C109.937 25.8542 109.717 25.9015 109.467 25.9432C109.221 25.9811 108.981 26.0152 108.746 26.0455C108.515 26.072 108.327 26.0947 108.183 26.1136C107.835 26.1591 107.509 26.233 107.206 26.3352C106.907 26.4337 106.664 26.5833 106.479 26.7841C106.297 26.9811 106.206 27.25 106.206 27.5909C106.206 28.0568 106.378 28.4091 106.723 28.6477C107.071 28.8826 107.513 29 108.047 29ZM120.472 23.2273L119.267 23.5682C119.191 23.3674 119.08 23.1723 118.932 22.983C118.788 22.7898 118.591 22.6307 118.341 22.5057C118.091 22.3807 117.771 22.3182 117.381 22.3182C116.847 22.3182 116.402 22.4413 116.045 22.6875C115.693 22.9299 115.517 23.2386 115.517 23.6136C115.517 23.947 115.638 24.2102 115.881 24.4034C116.123 24.5966 116.502 24.7576 117.017 24.8864L118.312 25.2045C119.093 25.3939 119.674 25.6837 120.057 26.0739C120.439 26.4602 120.631 26.9583 120.631 27.5682C120.631 28.0682 120.487 28.5152 120.199 28.9091C119.915 29.303 119.517 29.6136 119.006 29.8409C118.494 30.0682 117.9 30.1818 117.222 30.1818C116.331 30.1818 115.595 29.9886 115.011 29.6023C114.428 29.2159 114.059 28.6515 113.903 27.9091L115.176 27.5909C115.297 28.0606 115.527 28.4129 115.864 28.6477C116.205 28.8826 116.65 29 117.199 29C117.824 29 118.32 28.8674 118.688 28.6023C119.059 28.3333 119.244 28.0114 119.244 27.6364C119.244 27.3333 119.138 27.0795 118.926 26.875C118.714 26.6667 118.388 26.5114 117.949 26.4091L116.494 26.0682C115.695 25.8788 115.108 25.5852 114.733 25.1875C114.362 24.786 114.176 24.2841 114.176 23.6818C114.176 23.1894 114.314 22.7538 114.591 22.375C114.871 21.9962 115.252 21.6989 115.733 21.483C116.218 21.267 116.767 21.1591 117.381 21.1591C118.244 21.1591 118.922 21.3485 119.415 21.7273C119.911 22.1061 120.263 22.6061 120.472 23.2273ZM128.831 23.2273L127.626 23.5682C127.551 23.3674 127.439 23.1723 127.291 22.983C127.147 22.7898 126.95 22.6307 126.7 22.5057C126.45 22.3807 126.13 22.3182 125.74 22.3182C125.206 22.3182 124.761 22.4413 124.405 22.6875C124.053 22.9299 123.876 23.2386 123.876 23.6136C123.876 23.947 123.998 24.2102 124.24 24.4034C124.482 24.5966 124.861 24.7576 125.376 24.8864L126.672 25.2045C127.452 25.3939 128.034 25.6837 128.416 26.0739C128.799 26.4602 128.99 26.9583 128.99 27.5682C128.99 28.0682 128.846 28.5152 128.558 28.9091C128.274 29.303 127.876 29.6136 127.365 29.8409C126.854 30.0682 126.259 30.1818 125.581 30.1818C124.691 30.1818 123.954 29.9886 123.371 29.6023C122.787 29.2159 122.418 28.6515 122.263 27.9091L123.536 27.5909C123.657 28.0606 123.886 28.4129 124.223 28.6477C124.564 28.8826 125.009 29 125.558 29C126.183 29 126.679 28.8674 127.047 28.6023C127.418 28.3333 127.604 28.0114 127.604 27.6364C127.604 27.3333 127.498 27.0795 127.286 26.875C127.073 26.6667 126.748 26.5114 126.308 26.4091L124.854 26.0682C124.054 25.8788 123.467 25.5852 123.092 25.1875C122.721 24.786 122.536 24.2841 122.536 23.6818C122.536 23.1894 122.674 22.7538 122.95 22.375C123.231 21.9962 123.611 21.6989 124.092 21.483C124.577 21.267 125.126 21.1591 125.74 21.1591C126.604 21.1591 127.282 21.3485 127.774 21.7273C128.27 22.1061 128.623 22.6061 128.831 23.2273ZM132.986 30L130.327 21.2727H131.736L133.622 27.9545H133.713L135.577 21.2727H137.009L138.849 27.9318H138.94L140.827 21.2727H142.236L139.577 30H138.259L136.349 23.2955H136.213L134.304 30H132.986ZM147.257 30.1818C146.469 30.1818 145.778 29.9943 145.183 29.6193C144.592 29.2443 144.13 28.7197 143.797 28.0455C143.467 27.3712 143.303 26.5833 143.303 25.6818C143.303 24.7727 143.467 23.9792 143.797 23.3011C144.13 22.6231 144.592 22.0966 145.183 21.7216C145.778 21.3466 146.469 21.1591 147.257 21.1591C148.045 21.1591 148.734 21.3466 149.325 21.7216C149.92 22.0966 150.382 22.6231 150.712 23.3011C151.045 23.9792 151.212 24.7727 151.212 25.6818C151.212 26.5833 151.045 27.3712 150.712 28.0455C150.382 28.7197 149.92 29.2443 149.325 29.6193C148.734 29.9943 148.045 30.1818 147.257 30.1818ZM147.257 28.9773C147.856 28.9773 148.348 28.8239 148.734 28.517C149.121 28.2102 149.407 27.8068 149.592 27.3068C149.778 26.8068 149.871 26.2652 149.871 25.6818C149.871 25.0985 149.778 24.5549 149.592 24.0511C149.407 23.5473 149.121 23.1402 148.734 22.8295C148.348 22.5189 147.856 22.3636 147.257 22.3636C146.659 22.3636 146.166 22.5189 145.78 22.8295C145.393 23.1402 145.107 23.5473 144.922 24.0511C144.736 24.5549 144.643 25.0985 144.643 25.6818C144.643 26.2652 144.736 26.8068 144.922 27.3068C145.107 27.8068 145.393 28.2102 145.78 28.517C146.166 28.8239 146.659 28.9773 147.257 28.9773ZM153.259 30V21.2727H154.554V22.5909H154.645C154.804 22.1591 155.092 21.8087 155.509 21.5398C155.925 21.2708 156.395 21.1364 156.918 21.1364C157.016 21.1364 157.139 21.1383 157.287 21.142C157.435 21.1458 157.546 21.1515 157.622 21.1591V22.5227C157.577 22.5114 157.473 22.4943 157.31 22.4716C157.151 22.4451 156.982 22.4318 156.804 22.4318C156.38 22.4318 156.001 22.5208 155.668 22.6989C155.338 22.8731 155.077 23.1155 154.884 23.4261C154.694 23.733 154.599 24.0833 154.599 24.4773V30H153.259ZM162.241 30.1818C161.514 30.1818 160.872 29.9981 160.315 29.6307C159.759 29.2595 159.323 28.7367 159.009 28.0625C158.694 27.3845 158.537 26.5833 158.537 25.6591C158.537 24.7424 158.694 23.947 159.009 23.2727C159.323 22.5985 159.76 22.0777 160.321 21.7102C160.882 21.3428 161.529 21.1591 162.264 21.1591C162.832 21.1591 163.281 21.2538 163.611 21.4432C163.944 21.6288 164.198 21.8409 164.372 22.0795C164.55 22.3144 164.688 22.5076 164.787 22.6591H164.901V18.3636H166.241V30H164.946V28.6591H164.787C164.688 28.8182 164.548 29.0189 164.366 29.2614C164.185 29.5 163.925 29.714 163.588 29.9034C163.251 30.089 162.802 30.1818 162.241 30.1818ZM162.423 28.9773C162.961 28.9773 163.416 28.8371 163.787 28.5568C164.158 28.2727 164.44 27.8807 164.634 27.3807C164.827 26.8769 164.923 26.2955 164.923 25.6364C164.923 24.9848 164.829 24.4148 164.639 23.9261C164.45 23.4337 164.17 23.0511 163.798 22.7784C163.427 22.5019 162.969 22.3636 162.423 22.3636C161.855 22.3636 161.382 22.5095 161.003 22.8011C160.628 23.089 160.346 23.4811 160.156 23.9773C159.971 24.4697 159.878 25.0227 159.878 25.6364C159.878 26.2576 159.973 26.822 160.162 27.3295C160.355 27.8333 160.639 28.2348 161.014 28.5341C161.393 28.8295 161.863 28.9773 162.423 28.9773Z" fill="#757575"/>
<path d="M228.587 29.7746C222.337 29.7746 219.662 24.5746 219.549 24.3496C219.437 24.1246 219.437 23.8746 219.549 23.6496C219.662 23.4246 222.337 18.2246 228.587 18.2246C234.837 18.2246 237.512 23.4371 237.624 23.6621C237.737 23.8871 237.737 24.1371 237.624 24.3621C237.512 24.5871 234.837 29.7996 228.587 29.7996V29.7746ZM221.149 23.9996C221.812 25.0746 224.137 28.2121 228.587 28.2121C233.037 28.2121 235.362 25.0746 236.024 23.9871C235.362 22.9121 233.037 19.7621 228.587 19.7621C224.137 19.7621 221.812 22.9371 221.149 23.9996Z" fill="#757575"/>
<path d="M228.587 27.2746C226.774 27.2746 225.312 25.7996 225.312 23.9996C225.312 22.1996 226.787 20.7246 228.587 20.7246C230.387 20.7246 231.862 22.1996 231.862 23.9996C231.862 25.7996 230.387 27.2746 228.587 27.2746ZM228.587 22.2746C227.637 22.2746 226.862 23.0496 226.862 23.9996C226.862 24.9496 227.637 25.7246 228.587 25.7246C229.537 25.7246 230.312 24.9496 230.312 23.9996C230.312 23.0496 229.537 22.2746 228.587 22.2746Z" fill="#757575"/>
<rect x="0.5" y="0.5" width="250" height="47" rx="3.5" stroke="#545454"/>
</svg>

<svg width="251" height="48" fill="none" xmlns="http://www.w3.org/2000/svg"><rect x=".5" y=".5" width="250" height="47" rx="3.5" fill="#fff"/><path d="M13.4 30V18.36h7.03v1.25h-5.61v3.94h5.25v1.25h-5.25v3.95h5.7V30h-7.11Zm10.73-5.25V30H22.8v-8.73h1.3v1.37h.1c.21-.45.52-.8.94-1.07.42-.27.96-.41 1.61-.41.6 0 1.11.12 1.56.36.44.24.78.6 1.03 1.1.25.48.37 1.1.37 1.83V30h-1.34v-5.45c0-.69-.18-1.22-.54-1.6a1.9 1.9 0 0 0-1.46-.59c-.43 0-.81.1-1.15.28a2 2 0 0 0-.79.81c-.2.36-.29.8-.29 1.3Zm11.81-3.48v1.14h-4.52v-1.14h4.52Zm-3.2-2.09h1.34v8.32c0 .38.06.66.17.85.1.19.25.31.43.38.18.06.36.09.56.09.15 0 .27 0 .36-.02l.23-.05.27 1.2a2.73 2.73 0 0 1-1 .16 2.7 2.7 0 0 1-1.11-.24 2.21 2.21 0 0 1-.9-.75 2.14 2.14 0 0 1-.35-1.26v-8.68Zm8.79 11a3.74 3.74 0 0 1-3.58-2.13 5.35 5.35 0 0 1-.5-2.35c0-.89.17-1.68.5-2.36a3.7 3.7 0 0 1 3.44-2.18c.46 0 .9.07 1.35.23a3.34 3.34 0 0 1 2.08 2.08c.21.55.32 1.24.32 2.05v.57h-6.73v-1.16h5.37c0-.5-.1-.93-.3-1.32a2.23 2.23 0 0 0-2.09-1.25 2.47 2.47 0 0 0-2.28 1.42 3 3 0 0 0-.31 1.36v.77c0 .66.11 1.22.34 1.68.23.45.55.8.96 1.04.41.23.89.35 1.43.35.35 0 .67-.05.95-.15.29-.1.54-.25.75-.45.2-.2.37-.46.48-.77l1.3.37a2.9 2.9 0 0 1-.7 1.16c-.32.33-.71.58-1.19.77-.47.18-1 .27-1.6.27Zm5.65-.18v-8.73h1.3v1.32h.09c.16-.43.44-.78.86-1.05s.89-.4 1.41-.4a15.24 15.24 0 0 1 .7.02v1.36a4 4 0 0 0-.81-.09c-.43 0-.8.1-1.14.27a1.96 1.96 0 0 0-1.07 1.78V30h-1.34Zm11.32 3.27a2.94 2.94 0 0 1-.98-.16l.34-1.18c.33.09.61.12.86.1.25-.03.48-.14.67-.34.2-.2.38-.52.54-.96l.25-.68-3.23-8.78h1.46l2.4 6.96h.1l2.4-6.96h1.46l-3.7 10c-.17.45-.38.83-.62 1.12-.25.3-.54.52-.86.67-.32.14-.69.21-1.1.21Zm11.27-3.09a3.8 3.8 0 0 1-2.07-.56c-.6-.38-1.05-.9-1.39-1.57a5.32 5.32 0 0 1-.5-2.37c0-.9.17-1.7.5-2.38.34-.68.8-1.2 1.39-1.58a3.8 3.8 0 0 1 2.07-.56c.8 0 1.48.19 2.07.56.6.38 1.06.9 1.39 1.58.33.68.5 1.47.5 2.38 0 .9-.17 1.7-.5 2.37a3.8 3.8 0 0 1-1.39 1.57c-.59.37-1.28.56-2.07.56Zm0-1.2c.6 0 1.1-.16 1.48-.46.39-.31.67-.71.86-1.21a4.77 4.77 0 0 0 0-3.26c-.19-.5-.47-.91-.86-1.22a2.28 2.28 0 0 0-1.48-.47c-.6 0-1.09.16-1.47.47-.4.31-.68.72-.86 1.22a4.77 4.77 0 0 0 0 3.26c.18.5.47.9.86 1.2.38.31.87.47 1.47.47Zm11.5-2.55v-5.16h1.35V30h-1.35v-1.48h-.09a2.74 2.74 0 0 1-2.59 1.59 3 3 0 0 1-1.45-.35 2.5 2.5 0 0 1-1-1.1 4.14 4.14 0 0 1-.37-1.84v-5.55h1.35v5.46c0 .63.17 1.14.53 1.52.36.38.82.57 1.37.57a2.28 2.28 0 0 0 2.25-2.39Zm3.8 3.57v-8.73h1.3v1.32h.09c.16-.43.44-.78.86-1.05s.89-.4 1.41-.4a15.24 15.24 0 0 1 .7.02v1.36a4.02 4.02 0 0 0-.81-.09c-.43 0-.8.1-1.14.27a1.96 1.96 0 0 0-1.07 1.78V30h-1.34Zm10.45 3.27v-12h1.3v1.39h.16l.4-.58c.19-.24.44-.45.77-.64s.78-.28 1.35-.28a3.47 3.47 0 0 1 3.26 2.11c.31.68.47 1.47.47 2.39 0 .92-.16 1.72-.47 2.4a3.42 3.42 0 0 1-3.23 2.12c-.57 0-1.02-.1-1.35-.28a2.5 2.5 0 0 1-.78-.64 8.62 8.62 0 0 1-.42-.6h-.11v4.61h-1.35Zm1.32-7.63c0 .66.1 1.24.3 1.74.19.5.47.9.84 1.18.37.28.82.42 1.36.42a2.2 2.2 0 0 0 1.4-.45c.39-.3.67-.7.86-1.2.2-.5.29-1.07.29-1.7 0-.6-.1-1.16-.29-1.65-.18-.5-.46-.9-.84-1.18a2.2 2.2 0 0 0-1.42-.44 2.24 2.24 0 0 0-2.21 1.57 4.72 4.72 0 0 0-.29 1.7Zm11 4.56c-.55 0-1.05-.1-1.5-.3a2.7 2.7 0 0 1-1.08-.92c-.26-.4-.4-.89-.4-1.46 0-.5.1-.9.3-1.21.2-.32.46-.56.79-.74.33-.18.7-.31 1.1-.4.4-.1.8-.16 1.2-.22l1.3-.15c.33-.04.57-.1.72-.19.15-.08.23-.23.23-.45v-.05c0-.56-.15-1-.46-1.3-.3-.31-.76-.47-1.38-.47a2.39 2.39 0 0 0-2.27 1.32l-1.28-.46a3 3 0 0 1 .91-1.23c.39-.3.8-.51 1.25-.63a5.2 5.2 0 0 1 2.31-.08c.37.07.72.2 1.06.4.35.2.63.52.86.93.23.41.34.97.34 1.66V30h-1.34v-1.18h-.07a2.63 2.63 0 0 1-1.3 1.16c-.35.15-.78.22-1.29.22Zm.2-1.2c.54 0 .98-.1 1.35-.31a2.12 2.12 0 0 0 1.11-1.85v-1.23a.93.93 0 0 1-.37.2c-.2.04-.41.1-.66.13a29.56 29.56 0 0 1-1.29.17c-.35.05-.67.12-.97.23-.3.1-.55.24-.73.44-.18.2-.27.47-.27.81 0 .47.17.82.51 1.06.35.23.8.35 1.33.35Zm12.43-5.77-1.2.34c-.08-.2-.19-.4-.34-.59a1.56 1.56 0 0 0-.59-.47 2.15 2.15 0 0 0-.96-.2c-.53 0-.98.13-1.33.38-.36.24-.53.55-.53.92 0 .34.12.6.36.8.24.19.62.35 1.14.48l1.3.31c.77.2 1.35.48 1.74.87.38.39.57.89.57 1.5 0 .5-.14.95-.43 1.34-.28.4-.68.7-1.2.93-.5.23-1.1.34-1.78.34a3.9 3.9 0 0 1-2.2-.58 2.57 2.57 0 0 1-1.12-1.7l1.28-.3c.12.46.35.81.68 1.05.34.23.79.35 1.34.35a2.5 2.5 0 0 0 1.49-.4c.37-.27.55-.59.55-.96 0-.3-.1-.56-.31-.77-.22-.2-.54-.36-.98-.46l-1.46-.34a3.47 3.47 0 0 1-1.76-.88c-.37-.4-.55-.9-.55-1.5 0-.5.13-.94.41-1.32.28-.37.66-.67 1.14-.89a4 4 0 0 1 1.65-.32c.86 0 1.54.19 2.04.57.5.38.84.88 1.05 1.5Zm8.36 0-1.2.34a2.2 2.2 0 0 0-.34-.59 1.56 1.56 0 0 0-.59-.47 2.15 2.15 0 0 0-.96-.2c-.53 0-.98.13-1.33.38-.36.24-.53.55-.53.92 0 .34.12.6.36.8.24.19.62.35 1.14.48l1.3.31c.77.2 1.35.48 1.74.87.38.39.57.89.57 1.5 0 .5-.14.95-.43 1.34-.29.4-.68.7-1.2.93-.5.23-1.1.34-1.78.34a3.9 3.9 0 0 1-2.2-.58 2.57 2.57 0 0 1-1.12-1.7l1.28-.3c.12.46.35.81.68 1.05.34.23.79.35 1.34.35a2.5 2.5 0 0 0 1.49-.4c.37-.27.55-.59.55-.96 0-.3-.1-.56-.31-.77-.22-.2-.54-.36-.98-.46l-1.46-.34a3.47 3.47 0 0 1-1.76-.88c-.37-.4-.55-.9-.55-1.5 0-.5.13-.94.41-1.32.28-.37.66-.67 1.14-.89a4 4 0 0 1 1.65-.32c.86 0 1.54.19 2.03.57.5.38.85.88 1.06 1.5ZM133 30l-2.66-8.73h1.4l1.9 6.68h.08l1.87-6.68H137l1.84 6.66h.09l1.89-6.66h1.4L139.59 30h-1.32l-1.91-6.7h-.14l-1.9 6.7H133Zm14.27.18a3.8 3.8 0 0 1-2.08-.56 3.84 3.84 0 0 1-1.38-1.57 5.32 5.32 0 0 1-.5-2.37c0-.9.17-1.7.5-2.38.33-.68.8-1.2 1.38-1.58a3.8 3.8 0 0 1 2.08-.56c.78 0 1.47.19 2.06.56.6.38 1.06.9 1.4 1.58.32.68.5 1.47.5 2.38 0 .9-.18 1.7-.5 2.37a3.78 3.78 0 0 1-3.45 2.14Zm0-1.2c.6 0 1.09-.16 1.47-.46.4-.31.68-.71.86-1.21a4.8 4.8 0 0 0 0-3.26 2.7 2.7 0 0 0-.86-1.22 2.28 2.28 0 0 0-1.47-.47c-.6 0-1.1.16-1.48.47-.39.31-.67.72-.86 1.22a4.8 4.8 0 0 0 0 3.26c.19.5.47.9.86 1.2.39.31.88.47 1.48.47Zm6 1.02v-8.73h1.3v1.32h.09c.15-.43.44-.78.86-1.05s.89-.4 1.4-.4a15.28 15.28 0 0 1 .71.02v1.36a3.93 3.93 0 0 0-.82-.09c-.42 0-.8.1-1.13.27a1.96 1.96 0 0 0-1.07 1.78V30h-1.34Zm8.98.18a3.42 3.42 0 0 1-3.23-2.12 5.66 5.66 0 0 1-.47-2.4c0-.92.15-1.71.47-2.39a3.46 3.46 0 0 1 3.26-2.11c.56 0 1.01.1 1.34.28.33.19.59.4.76.64.18.23.32.43.42.58h.11v-4.3h1.34V30h-1.3v-1.34h-.15l-.42.6c-.19.24-.44.45-.78.64a2.8 2.8 0 0 1-1.35.28Zm.18-1.2c.54 0 1-.14 1.37-.42.37-.29.65-.68.84-1.18.2-.5.3-1.08.3-1.74 0-.66-.1-1.23-.3-1.71-.18-.5-.46-.88-.83-1.15a2.24 2.24 0 0 0-1.38-.42c-.56 0-1.04.15-1.42.44-.37.29-.65.68-.84 1.18a5.03 5.03 0 0 0 0 3.35c.2.5.48.9.85 1.2.38.3.85.45 1.41.45Zm66.16.79c-6.25 0-8.93-5.2-9.04-5.42a.77.77 0 0 1 0-.7c.11-.23 2.79-5.43 9.04-5.43 6.25 0 8.92 5.22 9.03 5.44.12.23.12.48 0 .7-.1.23-2.78 5.44-9.03 5.44v-.03ZM221.15 24a8.77 8.77 0 0 0 7.44 4.21 8.74 8.74 0 0 0 7.43-4.22 8.77 8.77 0 0 0-7.43-4.23c-4.45 0-6.78 3.18-7.44 4.24Z" fill="#757575"/><path d="M228.59 27.27a3.28 3.28 0 1 1 0-6.55 3.28 3.28 0 0 1 0 6.55Zm0-5a1.73 1.73 0 0 0 0 3.45 1.73 1.73 0 0 0 0-3.45Z" fill="#757575"/><rect x=".5" y=".5" width="250" height="47" rx="3.5" stroke="#545454"/></svg>
